X:1
T:The Big Muddy
M:4/4
L:1/8
K:F
 AA| d2 d2 f2 d2| A A2 G- G2 DD| DD D D- A,2D-D| D4 z4| AA AA cc AA|\
 d d2 dc A A2| A2 AA GF G A-| A4 z2 z A| A2 A2 c2 AA| d3 dc A2 A| G2 GG F3 G|\
 A6 AA| z d3 ^G2 =GF| A4 GF DD| D2 D2 A,^C D2| D6||
